build/img/twitter.svg

<svg width="23" height="19" viewBox="0 0 23 19" fill="none" xmlns="http://www.w3.org/2000/svg">
<path d="M6.8893 14.7391C4.70698 14.5465 3.27349 13.4554 2.46047 11.4442C3.14512 11.5084 3.80837 11.5512 4.51442 11.3372C2.18233 10.6098 0.962791 9.06932 0.791628 6.63025C1.45488 6.90839 2.11814 7.18653 2.86698 7.16513C0.813023 5.43211 0.32093 3.35676 1.45488 0.853506C4.06512 3.89165 7.29581 5.56048 11.254 5.83862C11.2326 5.60327 11.2326 5.36793 11.2112 5.15397C10.9758 2.84327 12.5377 0.682343 14.7628 0.14746C16.346 -0.216261 17.7795 0.0832737 19.0205 1.15304C19.32 1.43118 19.6195 1.49537 20.0047 1.36699C20.7749 1.06746 21.5665 0.78932 22.3367 0.511181C22.0372 1.47397 21.374 2.2442 20.5609 2.88606C20.5609 2.90746 20.5823 2.92886 20.5823 2.95025C21.374 2.7363 22.1656 2.54374 22.9572 2.32979C22.9786 2.35118 23 2.37258 23 2.37258C22.5721 2.84327 22.1656 3.31397 21.7377 3.76327C21.5023 4.04141 21.2456 4.25537 20.9674 4.46932C20.7749 4.61909 20.7107 4.79025 20.7107 5.0256C20.7321 6.54467 20.5181 8.04234 20.026 9.47583C18.9349 12.7065 17.0093 15.2526 14.0781 17.007C12.5805 17.9056 10.9544 18.4405 9.2214 18.6758C7.01767 18.9968 4.85674 18.8256 2.76 18.0982C1.94698 17.82 0.449302 17.114 0 16.7289C2.52465 16.9214 4.81395 16.3009 6.8893 14.7391Z" fill="#6BC5F8"/>
</svg>

<svg width="23" height="19" fill="none" xmlns="http://www.w3.org/2000/svg"><path d="M6.89 14.74c-2.183-.194-3.617-1.285-4.43-3.296.685.064 1.348.107 2.054-.107C2.182 10.61.963 9.07.792 6.63c.663.278 1.326.557 2.075.535C.813 5.432.321 3.357 1.455.854c2.61 3.038 5.84 4.706 9.799 4.985-.021-.236-.021-.471-.043-.685-.235-2.31 1.327-4.472 3.552-5.007 1.583-.363 3.016-.064 4.257 1.006.3.278.6.342.985.214.77-.3 1.562-.578 2.332-.856-.3.963-.963 1.733-1.776 2.375 0 .021.021.043.021.064.792-.214 1.584-.406 2.375-.62l.043.043c-.428.47-.834.941-1.262 1.39a4.788 4.788 0 01-.77.706c-.193.15-.257.321-.257.557.021 1.519-.193 3.016-.685 4.45-1.091 3.23-3.017 5.777-5.948 7.531-1.497.899-3.124 1.433-4.857 1.669-2.203.32-4.364.15-6.461-.578-.813-.278-2.31-.984-2.76-1.37 2.525.193 4.814-.427 6.89-1.989z" fill="#6BC5F8"/></svg>
